; generated by PrusaSlicer 2.3.1 on 2021-05-09 at 18:18:34 UTC

; 

; external perimeters extrusion width = 0.45mm
; perimeters extrusion width = 0.45mm
; infill extrusion width = 0.45mm
; solid infill extrusion width = 0.45mm
; top infill extrusion width = 0.40mm
; support material extrusion width = 0.40mm
; first layer extrusion width = 0.50mm

M201 X9000 Y9000 Z500 E10000 ; sets maximum accelerations, mm/sec^2
M203 X500 Y500 Z12 E120 ; sets maximum feedrates, mm/sec
M204 P1500 R1500 T1500 ; sets acceleration (P, T) and retract acceleration (R), mm/sec^2
M205 X10.00 Y10.00 Z0.20 E2.50 ; sets the jerk limits, mm/sec
M205 S0 T0 ; sets the minimum extruding and travel feed rate, mm/sec
M107 ; disable fan
;TYPE:Custom
; *** start of custom G-code ***
M140 S75 ; set bed temp
M104 S250 ; set extruder temp
G28 Y0 X0 Z0  ; home
M190 S75 ; wait for bed temp
M109 S250 ; wait for extruder temp
M300 S1000 P500 ; chirp
; Prusa g-code
; G1 Y-3.0 X0.0 F4000.0 ; go outside print area
; G1 Z0.0 F300.0; 
; G1 X90 E15.0  F1000.0 ; intro line
; G92 E0.0
G1 Z2.0 F3000 ; Move Z Axis up little to prevent scratching of Heat Bed
G1 X0.1 Y20 Z0.3 F5000.0 ; Move to start position
G1 X0.1 Y200.0 Z0.3 F1500.0 E15 ; Draw the first line
G1 X0.5 Y200.0 Z0.3 F5000.0 ; Move to side a little
G1 X0.5 Y20 Z0.3 F1500.0 E30 ; Draw the second line
G92 E0 ; Reset Extruder
G1 Z2.0 F3000 ; Move Z Axis up little to prevent scratching of Heat Bed
G1 X5 Y20 Z0.3 F5000.0 ; Move over to prevent blob squish
; *** end of custom G-code ***
G21 ; set units to millimeters
G90 ; use absolute coordinates
M82 ; use absolute distances for extrusion
G92 E0 ; reset extrusion distance
; Filament gcode
;LAYER_CHANGE
;Z:0.25
;HEIGHT:0.25
; For Heat_tower_190-240_Bridge.stl
; Reduce temperature every 5mm (20 layers for 0.25mm layer height). Start from 250C, not the stl file says 240C. Higher temperature for PETG. Notice most 3D printers support up to 260C. 
; Set layer height to 0.25mm. If larger, some bridges are skipped.
; Below varibles are for PrusaSlicer. You need to find their equivalant for other slicers like Cura.
; layer_z is heigh in mm, not layer sequence index 1, 2, 3 etc. Layer 0's layer_z is 0.25mm, layer 1's is 0.5mm... layer 19's is 5mm.
; Current layer_z: 0.25
; Current: int(((layer_z-0.25) / 5)): 0
M104 S250
G1 Z0.250 F7800.000 ; move to next layer (0)
; printing object Heat_tower_190-240_Bridge.stl id:0 copy 0
G1 E-3.00000 F3000.000 ; retract
G92 E0 ; reset extrusion distance
G1 X139.843 Y109.135 F7800.000 ; move to first perimeter point
G1 E3.00000 F3000.000 ; unretract
;TYPE:Perimeter
;WIDTH:0.5
G1 F1200.000
G1 X152.282 Y109.135 E3.57711 ; perimeter
G1 X152.282 Y119.758 E4.06992 ; perimeter
G1 X146.788 Y126.256 E4.46469 ; perimeter
G1 X146.259 Y126.152 E4.48972 ; perimeter
G1 X145.188 Y125.788 E4.54218 ; perimeter
G1 X144.173 Y125.288 E4.59470 ; perimeter
G1 X143.232 Y124.659 E4.64722 ; perimeter
G1 X142.380 Y123.912 E4.69974 ; perimeter
G1 X141.634 Y123.061 E4.75226 ; perimeter
G1 X141.005 Y122.120 E4.80478 ; perimeter
G1 X140.513 Y121.121 E4.85644 ; perimeter
G1 X140.140 Y120.032 E4.90986 ; perimeter
G1 X139.920 Y118.922 E4.96233 ; perimeter
G1 X139.843 Y117.749 E5.01689 ; perimeter
G1 X139.843 Y109.195 E5.41370 ; perimeter
G1 X139.396 Y108.689 F7800.000 ; move to first perimeter point
G1 F1200.000
G1 X152.729 Y108.689 E6.03222 ; perimeter
G1 X152.729 Y119.922 E6.55332 ; perimeter
G1 X146.960 Y126.745 E6.96786 ; perimeter
G1 X146.144 Y126.584 E7.00644 ; perimeter
G1 X145.017 Y126.202 E7.06164 ; perimeter
G1 X143.949 Y125.675 E7.11687 ; perimeter
G1 X142.959 Y125.014 E7.17211 ; perimeter
G1 X142.064 Y124.229 E7.22734 ; perimeter
G1 X141.279 Y123.334 E7.28257 ; perimeter
G1 X140.618 Y122.344 E7.33781 ; perimeter
G1 X140.099 Y121.293 E7.39216 ; perimeter
G1 X139.708 Y120.148 E7.44830 ; perimeter
G1 X139.476 Y118.981 E7.50350 ; perimeter
G1 X139.396 Y117.763 E7.56010 ; perimeter
G1 X139.396 Y108.749 E7.97829 ; perimeter
G1 X138.950 Y108.243 F7800.000 ; move to first perimeter point
;TYPE:External perimeter
G1 F1200.000
G1 X153.175 Y108.243 E8.63823 ; perimeter
G1 X153.175 Y120.085 E9.18762 ; perimeter
G1 X147.131 Y127.234 E9.62191 ; perimeter
G1 X146.028 Y127.016 E9.67405 ; perimeter
G1 X144.846 Y126.615 E9.73199 ; perimeter
G1 X143.725 Y126.062 E9.78993 ; perimeter
G1 X142.687 Y125.369 E9.84788 ; perimeter
G1 X141.748 Y124.545 E9.90583 ; perimeter
G1 X140.924 Y123.606 E9.96378 ; perimeter
G1 X140.230 Y122.567 E10.02173 ; perimeter
G1 X139.686 Y121.464 E10.07878 ; perimeter
G1 X139.276 Y120.264 E10.13762 ; perimeter
G1 X139.033 Y119.039 E10.19556 ; perimeter
G1 X138.950 Y117.778 E10.25419 ; perimeter
G1 X138.950 Y108.303 E10.69378 ; perimeter
G1 X139.297 Y108.442 F7800.000 ; move inwards before travel
G1 E7.69378 F3000.000 ; retract
G92 E0 ; reset extrusion distance
G1 X151.272 Y109.225 F7800.000 ; move to first infill point
G1 E3.00000 F3000.000 ; unretract
;TYPE:Solid infill
;WIDTH:0.508618
G1 F1200.000
G1 X151.992 Y109.944 E3.04813 ; infill
G1 X151.992 Y110.588 E3.07856 ; infill
G1 X150.830 Y109.426 E3.15629 ; infill
G1 X150.186 Y109.426 E3.18671 ; infill
G1 X151.992 Y111.231 E3.30747 ; infill
G1 X151.992 Y111.875 E3.33790 ; infill
G1 X149.543 Y109.426 E3.50168 ; infill
G1 X148.900 Y109.426 E3.53211 ; infill
G1 X151.992 Y112.518 E3.73893 ; infill
G1 X151.992 Y113.162 E3.76935 ; infill
G1 X148.256 Y109.426 E4.01920 ; infill
G1 X147.613 Y109.426 E4.04963 ; infill
G1 X151.992 Y113.805 E4.34250 ; infill
G1 X151.992 Y114.448 E4.37293 ; infill
G1 X146.969 Y109.426 E4.70883 ; infill
G1 X146.326 Y109.426 E4.73926 ; infill
G1 X151.992 Y115.092 E5.11819 ; infill
G1 X151.992 Y115.735 E5.14862 ; infill
G1 X145.683 Y109.426 E5.57058 ; infill
G1 X145.039 Y109.426 E5.60101 ; infill
G1 X151.992 Y116.379 E6.06600 ; infill
G1 X151.992 Y117.022 E6.09643 ; infill
G1 X144.396 Y109.426 E6.60445 ; infill
G1 X143.752 Y109.426 E6.63488 ; infill
G1 X151.992 Y117.666 E7.18593 ; infill
G1 X151.992 Y118.309 E7.21636 ; infill
G1 X143.109 Y109.426 E7.81044 ; infill
G1 X142.465 Y109.426 E7.84087 ; infill
G1 X151.992 Y118.952 E8.47798 ; infill
G1 X151.992 Y119.596 E8.50840 ; infill
G1 X141.822 Y109.426 E9.18855 ; infill
G1 X141.179 Y109.426 E9.21897 ; infill
G1 X151.723 Y119.970 E9.92415 ; infill
G1 X151.428 Y120.319 E9.94574 ; infill
G1 X140.535 Y109.426 E10.67423 ; infill
G1 X140.133 Y109.426 E10.69326 ; infill
G1 X140.133 Y109.667 E10.70466 ; infill
G1 X151.134 Y120.667 E11.44035 ; infill
G1 X150.839 Y121.016 E11.46194 ; infill
G1 X140.133 Y110.310 E12.17791 ; infill
G1 X140.133 Y110.954 E12.20834 ; infill
G1 X150.544 Y121.365 E12.90460 ; infill
G1 X150.249 Y121.713 E12.92619 ; infill
G1 X140.133 Y111.597 E13.60273 ; infill
G1 X140.133 Y112.240 E13.63316 ; infill
G1 X149.954 Y122.062 E14.28999 ; infill
G1 X149.660 Y122.411 E14.31158 ; infill
G1 X140.133 Y112.884 E14.94870 ; infill
G1 X140.133 Y113.527 E14.97913 ; infill
G1 X149.365 Y122.759 E15.59654 ; infill
G1 X149.070 Y123.108 E15.61813 ; infill
G1 X140.133 Y114.171 E16.21582 ; infill
G1 X140.133 Y114.814 E16.24625 ; infill
G1 X148.775 Y123.457 E16.82423 ; infill
G1 X148.481 Y123.805 E16.84582 ; infill
G1 X140.133 Y115.457 E17.40408 ; infill
G1 X140.133 Y116.101 E17.43451 ; infill
G1 X148.186 Y124.154 E17.97306 ; infill
G1 X147.891 Y124.503 E17.99465 ; infill
G1 X140.133 Y116.744 E18.51349 ; infill
G1 X140.133 Y117.388 E18.54392 ; infill
G1 X147.596 Y124.851 E19.04304 ; infill
G1 X147.301 Y125.200 E19.06463 ; infill
G1 X140.153 Y118.052 E19.54268 ; infill
G1 X140.198 Y118.740 E19.57531 ; infill
G1 X147.007 Y125.548 E20.03062 ; infill
G1 X146.712 Y125.897 E20.05221 ; infill
G1 X140.334 Y119.519 E20.47873 ; infill
G1 X140.421 Y119.956 E20.49979 ; infill
G1 X140.573 Y120.402 E20.52207 ; infill
G1 X145.893 Y125.721 E20.87780 ; infill
G1 X145.299 Y125.520 E20.90742 ; infill
G1 X144.803 Y125.275 E20.93359 ; infill
G1 X141.018 Y121.490 E21.18673 ; infill
G1 X141.257 Y121.975 E21.21230 ; infill
G1 X141.865 Y122.884 E21.26403 ; infill
G1 X142.548 Y123.663 E21.31303 ; infill
G1 X143.848 Y124.963 E21.39996 ; infill
G1 E18.39996 F3000.000 ; retract
G92 E0 ; reset extrusion distance
G1 X123.050 Y117.343 F7800.000 ; move to first perimeter point
G1 E3.00000 F3000.000 ; unretract
;TYPE:External perimeter
;WIDTH:0.5
G1 F1200.000
G1 X121.950 Y117.343 E3.05103 ; perimeter
G1 X121.950 Y108.243 E3.47320 ; perimeter
G1 X123.050 Y108.243 E3.52424 ; perimeter
G1 X123.050 Y117.283 E3.94363 ; perimeter
G1 X122.696 Y117.157 F7800.000 ; move inwards before travel
G1 E0.94363 F3000.000 ; retract
G92 E0 ; reset extrusion distance
G1 X122.500 Y108.466 F7800.000 ; move to first infill point
G1 E3.00000 F3000.000 ; unretract
;TYPE:Gap fill
;WIDTH:0.707302
G1 F1200.000
G1 X122.500 Y117.120 E3.58792 ; infill
; stop printing object Heat_tower_190-240_Bridge.stl id:0 copy 0
;LAYER_CHANGE
;Z:0.5
;HEIGHT:0.25
; For Heat_tower_190-240_Bridge.stl
; Reduce temperature every 5mm (20 layers for 0.25mm layer height). Start from 250C, not the stl file says 240C. Higher temperature for PETG. Notice most 3D printers support up to 260C. 
; Set layer height to 0.25mm. If larger, some bridges are skipped.
; Below varibles are for PrusaSlicer. You need to find their equivalant for other slicers like Cura.
; layer_z is heigh in mm, not layer sequence index 1, 2, 3 etc. Layer 0's layer_z is 0.25mm, layer 1's is 0.5mm... layer 19's is 5mm.
; Current layer_z: 0.5
; Current: int(((layer_z-0.25) / 5)): 0
M104 S250
G1 Z0.500 F7800.000 ; move to next layer (1)
; printing object Heat_tower_190-240_Bridge.stl id:0 copy 0
G1 X122.879 Y117.171 ; move to first perimeter point
;TYPE:Perimeter
;WIDTH:0.45
G1 F900.000
G1 X122.121 Y117.171 E3.61912 ; perimeter
G1 X122.121 Y108.414 E3.97988 ; perimeter
G1 X122.879 Y108.414 E4.01108 ; perimeter
G1 X122.879 Y117.111 E4.36937 ; perimeter
G1 X123.275 Y117.568 F7800.000 ; move to first perimeter point
;TYPE:External perimeter
G1 F900.000
G1 X121.725 Y117.568 E4.43323 ; perimeter
G1 X121.725 Y108.018 E4.82665 ; perimeter
G1 X123.275 Y108.018 E4.89050 ; perimeter
G1 X123.275 Y117.508 E5.28145 ; perimeter
G1 X122.918 Y117.387 F7800.000 ; move inwards before travel
G1 X122.500 Y108.612 ; move to first infill point
;TYPE:Gap fill
;WIDTH:0.414604
G1 F1200.000
G1 X122.500 Y116.973 E5.59512 ; infill
G1 E2.59512 F3000.000 ; retract
G92 E0 ; reset extrusion distance
G1 X139.518 Y108.810 F7800.000 ; move to first perimeter point
G1 E3.00000 F3000.000 ; unretract
;TYPE:Perimeter
;WIDTH:0.45
G1 F3600.000
G1 X152.857 Y108.810 E3.54954 ; perimeter
G1 X152.857 Y119.877 E4.00543 ; perimeter
G1 X147.126 Y126.656 E4.37113 ; perimeter
G1 X146.176 Y126.467 E4.41104 ; perimeter
G1 X145.063 Y126.089 E4.45943 ; perimeter
G1 X144.010 Y125.570 E4.50782 ; perimeter
G1 X143.033 Y124.917 E4.55621 ; perimeter
G1 X142.150 Y124.143 E4.60460 ; perimeter
G1 X141.376 Y123.260 E4.65299 ; perimeter
G1 X140.723 Y122.283 E4.70138 ; perimeter
G1 X140.245 Y121.313 E4.74592 ; perimeter
G1 X139.825 Y120.112 E4.79832 ; perimeter
G1 X139.597 Y118.965 E4.84652 ; perimeter
G1 X139.518 Y117.759 E4.89629 ; perimeter
G1 X139.518 Y108.870 E5.26248 ; perimeter
G1 X139.121 Y108.414 F7800.000 ; move to first perimeter point
G1 F3600.000
G1 X153.254 Y108.414 E5.84467 ; perimeter
G1 X153.254 Y120.022 E6.32287 ; perimeter
G1 X147.278 Y127.090 E6.70417 ; perimeter
G1 X146.073 Y126.851 E6.75477 ; perimeter
G1 X144.911 Y126.456 E6.80530 ; perimeter
G1 X143.811 Y125.914 E6.85583 ; perimeter
G1 X142.791 Y125.232 E6.90636 ; perimeter
G1 X141.869 Y124.424 E6.95690 ; perimeter
G1 X141.060 Y123.501 E7.00743 ; perimeter
G1 X140.379 Y122.481 E7.05796 ; perimeter
G1 X139.879 Y121.467 E7.10456 ; perimeter
G1 X139.442 Y120.217 E7.15910 ; perimeter
G1 X139.203 Y119.017 E7.20952 ; perimeter
G1 X139.121 Y117.772 E7.26089 ; perimeter
G1 X139.121 Y108.474 E7.64394 ; perimeter
G1 X138.725 Y108.018 F7800.000 ; move to first perimeter point
;TYPE:External perimeter
G1 F1800.000
G1 X153.650 Y108.018 E8.25879 ; perimeter
G1 X153.650 Y120.167 E8.75930 ; perimeter
G1 X147.465 Y127.482 E9.15391 ; perimeter
G1 X147.217 Y127.482 E9.16415 ; perimeter
G1 X145.970 Y127.234 E9.21651 ; perimeter
G1 X144.759 Y126.823 E9.26918 ; perimeter
G1 X143.613 Y126.258 E9.32186 ; perimeter
G1 X142.550 Y125.547 E9.37453 ; perimeter
G1 X141.588 Y124.704 E9.42720 ; perimeter
G1 X140.745 Y123.743 E9.47987 ; perimeter
G1 X140.035 Y122.680 E9.53254 ; perimeter
G1 X139.512 Y121.620 E9.58121 ; perimeter
G1 X139.058 Y120.322 E9.63790 ; perimeter
G1 X138.809 Y119.069 E9.69052 ; perimeter
G1 X138.725 Y117.785 E9.74350 ; perimeter
G1 X138.725 Y108.078 E10.14341 ; perimeter
G1 X139.072 Y108.217 F7800.000 ; move inwards before travel
G1 X146.418 Y126.434 ; move to first infill point
;TYPE:Solid infill
;WIDTH:0.450366
G1 F1200.000
G1 X150.029 Y122.823 E10.35398 ; infill
G1 X152.600 Y119.783 E10.51816 ; infill
G1 X152.600 Y119.692 E10.52192 ; infill
G1 X146.117 Y126.175 E10.89998 ; infill
G1 X145.698 Y126.033 E10.91822 ; infill
G1 X152.600 Y119.131 E11.32070 ; infill
G1 X152.600 Y118.569 E11.34383 ; infill
G1 X145.279 Y125.890 E11.77074 ; infill
G1 X144.891 Y125.717 E11.78825 ; infill
G1 X152.600 Y118.008 E12.23777 ; infill
G1 X152.600 Y117.447 E12.26090 ; infill
G1 X144.515 Y125.532 E12.73233 ; infill
G1 X144.140 Y125.346 E12.74960 ; infill
G1 X152.600 Y116.886 E13.24294 ; infill
G1 X152.600 Y116.325 E13.26607 ; infill
G1 X143.803 Y125.122 E13.77903 ; infill
G1 X143.467 Y124.897 E13.79571 ; infill
G1 X152.600 Y115.764 E14.32827 ; infill
G1 X152.600 Y115.203 E14.35141 ; infill
G1 X143.137 Y124.666 E14.90320 ; infill
G1 X142.838 Y124.404 E14.91959 ; infill
G1 X152.600 Y114.642 E15.48881 ; infill
G1 X152.600 Y114.081 E15.51194 ; infill
G1 X142.539 Y124.141 E16.09859 ; infill
G1 X142.252 Y123.868 E16.11496 ; infill
G1 X152.600 Y113.520 E16.71838 ; infill
G1 X152.600 Y112.959 E16.74151 ; infill
G1 X141.990 Y123.569 E17.36021 ; infill
G1 X141.728 Y123.270 E17.37661 ; infill
G1 X152.600 Y112.398 E18.01060 ; infill
G1 X152.600 Y111.837 E18.03373 ; infill
G1 X141.482 Y122.955 E18.68205 ; infill
G1 X141.257 Y122.619 E18.69873 ; infill
G1 X152.600 Y111.276 E19.36015 ; infill
G1 X152.600 Y110.715 E19.38329 ; infill
G1 X141.032 Y122.282 E20.05782 ; infill
G1 X140.947 Y122.154 E20.06419 ; infill
G1 X140.832 Y121.922 E20.07486 ; infill
G1 X152.600 Y110.154 E20.76108 ; infill
G1 X152.600 Y109.593 E20.78421 ; infill
G1 X140.647 Y121.546 E21.48123 ; infill
G1 X140.466 Y121.165 E21.49859 ; infill
G1 X152.563 Y109.068 E22.20403 ; infill
G1 X152.002 Y109.068 E22.22716 ; infill
G1 X140.321 Y120.750 E22.90836 ; infill
G1 X140.175 Y120.334 E22.92652 ; infill
G1 X151.441 Y109.068 E23.58347 ; infill
G1 X150.880 Y109.068 E23.60661 ; infill
G1 X140.046 Y119.902 E24.23840 ; infill
G1 X139.953 Y119.435 E24.25807 ; infill
G1 X150.319 Y109.068 E24.86257 ; infill
G1 X149.758 Y109.068 E24.88571 ; infill
G1 X139.860 Y118.967 E25.46292 ; infill
G1 X139.821 Y118.444 E25.48451 ; infill
G1 X149.197 Y109.068 E26.03128 ; infill
G1 X148.636 Y109.068 E26.05441 ; infill
G1 X139.786 Y117.918 E26.57047 ; infill
G1 X139.775 Y117.368 E26.59316 ; infill
G1 X148.075 Y109.068 E27.07715 ; infill
G1 X147.514 Y109.068 E27.10028 ; infill
G1 X139.775 Y116.807 E27.55155 ; infill
G1 X139.775 Y116.246 E27.57469 ; infill
G1 X146.953 Y109.068 E27.99324 ; infill
G1 X146.392 Y109.068 E28.01637 ; infill
G1 X139.775 Y115.685 E28.40221 ; infill
G1 X139.775 Y115.124 E28.42534 ; infill
G1 X145.831 Y109.068 E28.77847 ; infill
G1 X145.270 Y109.068 E28.80160 ; infill
G1 X139.775 Y114.563 E29.12200 ; infill
G1 X139.775 Y114.002 E29.14514 ; infill
G1 X144.709 Y109.068 E29.43283 ; infill
G1 X144.148 Y109.068 E29.45596 ; infill
G1 X139.775 Y113.441 E29.71093 ; infill
G1 X139.775 Y112.879 E29.73407 ; infill
G1 X143.587 Y109.068 E29.95632 ; infill
G1 X143.026 Y109.068 E29.97946 ; infill
G1 X139.775 Y112.318 E30.16900 ; infill
G1 X139.775 Y111.757 E30.19213 ; infill
G1 X142.465 Y109.068 E30.34896 ; infill
G1 X141.904 Y109.068 E30.37209 ; infill
G1 X139.775 Y111.196 E30.49620 ; infill
