; generated by PrusaSlicer 2.3.1 on 2021-05-09 at 01:20:41 UTC

; 

; external perimeters extrusion width = 0.45mm
; perimeters extrusion width = 0.45mm
; infill extrusion width = 0.45mm
; solid infill extrusion width = 0.45mm
; top infill extrusion width = 0.40mm
; support material extrusion width = 0.40mm
; first layer extrusion width = 0.50mm

M201 X9000 Y9000 Z500 E10000 ; sets maximum accelerations, mm/sec^2
M203 X500 Y500 Z12 E120 ; sets maximum feedrates, mm/sec
M204 P1500 R1500 T1500 ; sets acceleration (P, T) and retract acceleration (R), mm/sec^2
M205 X10.00 Y10.00 Z0.20 E2.50 ; sets the jerk limits, mm/sec
M205 S0 T0 ; sets the minimum extruding and travel feed rate, mm/sec
M107 ; disable fan
;TYPE:Custom
; *** start of custom G-code ***
M140 S75 ; set bed temp
M104 S260 ; set extruder temp
G28 Y0 X0 Z0  ; home
M190 S75 ; wait for bed temp
M109 S260 ; wait for extruder temp
M300 S1000 P500 ; chirp
; Prusa g-code
; G1 Y-3.0 X0.0 F4000.0 ; go outside print area
; G1 Z0.0 F300.0; 
; G1 X90 E15.0  F1000.0 ; intro line
; G92 E0.0
G1 Z2.0 F3000 ; Move Z Axis up little to prevent scratching of Heat Bed
G1 X0.1 Y20 Z0.3 F5000.0 ; Move to start position
G1 X0.1 Y200.0 Z0.3 F1500.0 E15 ; Draw the first line
G1 X0.5 Y200.0 Z0.3 F5000.0 ; Move to side a little
G1 X0.5 Y20 Z0.3 F1500.0 E30 ; Draw the second line
G92 E0 ; Reset Extruder
G1 Z2.0 F3000 ; Move Z Axis up little to prevent scratching of Heat Bed
G1 X5 Y20 Z0.3 F5000.0 ; Move over to prevent blob squish
; *** end of custom G-code ***
G21 ; set units to millimeters
G90 ; use absolute coordinates
M82 ; use absolute distances for extrusion
G92 E0 ; reset extrusion distance
; Filament gcode
;LAYER_CHANGE
;Z:0.25
;HEIGHT:0.25
; For Heat_tower_190-240_Bridge.stl
; Reduce temperature every 5mm (20 layers for 0.25mm layer height). Start from 260C, not the stl file says 240C. My nozzle is 0.6mm and requires higher temerature.
; Set layer height to 0.25mm. If larger, some bridges are skipped.
; Below varibles are for PrusaSlicer. You need to find their equivalant for other slicers like Cura.
; layer_z is heigh in mm, not layer sequence index 1, 2, 3 etc. Layer 0's layer_z is 0.25mm, layer 1's is 0.5mm... layer 19's is 5mm.
; Current layer_z: 0.25
; Current: int(((layer_z-0.25) / 5)): 0
M104 S260
G1 Z0.250 F7800.000 ; move to next layer (0)
G1 E-3.00000 F3000.000 ; retract
G92 E0 ; reset extrusion distance
G1 X131.563 Y56.773 F7800.000 ; move to first brim point
G1 E3.00000 F3000.000 ; unretract
;TYPE:Skirt
;WIDTH:0.5
G1 F1200.000
G1 X132.416 Y55.505 E3.07089 ; brim
G1 X134.039 Y54.017 E3.17305 ; brim
G1 X135.045 Y53.407 E3.22762 ; brim
G1 X136.105 Y52.946 E3.28122 ; brim
G1 X137.852 Y52.542 E3.36441 ; brim
G1 X155.431 Y52.552 E4.17996 ; brim
G1 X156.965 Y52.908 E4.25302 ; brim
G1 X158.384 Y53.538 E4.32505 ; brim
G1 X159.665 Y54.423 E4.39728 ; brim
G1 X160.807 Y55.546 E4.47161 ; brim
G1 X161.675 Y56.732 E4.53975 ; brim
G1 X162.327 Y58.069 E4.60875 ; brim
G1 X162.783 Y59.809 E4.69220 ; brim
G1 X162.849 Y74.340 E5.36636 ; brim
G1 X162.301 Y76.722 E5.47978 ; brim
G1 X161.103 Y78.915 E5.59567 ; brim
G1 X154.115 Y87.167 E6.09732 ; brim
G1 X152.514 Y88.472 E6.19316 ; brim
G1 X151.065 Y89.205 E6.26850 ; brim
G1 X149.613 Y89.651 E6.33894 ; brim
G1 X147.313 Y89.800 E6.44589 ; brim
G1 X144.385 Y89.310 E6.58363 ; brim
G1 X142.038 Y88.540 E6.69820 ; brim
G1 X139.802 Y87.461 E6.81338 ; brim
G1 X137.750 Y86.112 E6.92731 ; brim
G1 X135.683 Y84.295 E7.05500 ; brim
G1 X134.143 Y82.514 E7.16423 ; brim
G1 X132.853 Y80.580 E7.27208 ; brim
G1 X131.836 Y78.552 E7.37733 ; brim
G1 X131.069 Y76.407 E7.48303 ; brim
G1 X129.414 Y78.068 E7.59179 ; brim
G1 X127.919 Y79.027 E7.67420 ; brim
G1 X126.411 Y79.609 E7.74921 ; brim
G1 X124.761 Y79.888 E7.82683 ; brim
G1 X121.441 Y79.896 E7.98090 ; brim
G1 X120.092 Y79.722 E8.04399 ; brim
G1 X118.589 Y79.233 E8.11730 ; brim
G1 X117.108 Y78.418 E8.19570 ; brim
G1 X115.329 Y76.781 E8.30786 ; brim
G1 X114.202 Y75.100 E8.40179 ; brim
G1 X113.694 Y73.839 E8.46483 ; brim
G1 X113.394 Y72.493 E8.52883 ; brim
G1 X113.326 Y60.650 E9.07824 ; brim
G1 X113.502 Y59.256 E9.14344 ; brim
G1 X113.998 Y57.724 E9.21813 ; brim
G1 X115.076 Y55.913 E9.31592 ; brim
G1 X116.475 Y54.462 E9.40941 ; brim
G1 X118.092 Y53.384 E9.49958 ; brim
G1 X119.444 Y52.838 E9.56722 ; brim
G1 X120.906 Y52.535 E9.63649 ; brim
G1 X125.090 Y52.526 E9.83059 ; brim
G1 X126.421 Y52.781 E9.89349 ; brim
G1 X127.716 Y53.255 E9.95743 ; brim
G1 X129.486 Y54.381 E10.05475 ; brim
G1 X131.242 Y56.250 E10.17374 ; brim
G1 X131.532 Y56.721 E10.19942 ; brim
G1 X131.537 Y57.622 F7800.000 ; move to first brim point
G1 F1200.000
G1 X132.738 Y55.814 E10.30010 ; brim
G1 X134.291 Y54.387 E10.39795 ; brim
G1 X135.238 Y53.810 E10.44938 ; brim
G1 X136.264 Y53.363 E10.50133 ; brim
G1 X137.877 Y52.988 E10.57816 ; brim
G1 X155.355 Y52.993 E11.38899 ; brim
G1 X156.843 Y53.338 E11.45985 ; brim
G1 X158.183 Y53.937 E11.52793 ; brim
G1 X159.395 Y54.778 E11.59639 ; brim
G1 X160.458 Y55.825 E11.66558 ; brim
G1 X161.302 Y56.979 E11.73194 ; brim
G1 X161.916 Y58.244 E11.79716 ; brim
G1 X162.337 Y59.839 E11.87370 ; brim
G1 X162.403 Y74.316 E12.54531 ; brim
G1 X161.873 Y76.591 E12.65370 ; brim
G1 X160.748 Y78.643 E12.76227 ; brim
G1 X153.788 Y86.862 E13.26191 ; brim
G1 X152.252 Y88.110 E13.35373 ; brim
G1 X150.882 Y88.798 E13.42483 ; brim
G1 X149.508 Y89.216 E13.49146 ; brim
G1 X147.361 Y89.356 E13.59130 ; brim
G1 X144.508 Y88.881 E13.72548 ; brim
G1 X142.192 Y88.121 E13.83857 ; brim
G1 X140.010 Y87.066 E13.95101 ; brim
G1 X138.033 Y85.767 E14.06074 ; brim
G1 X135.989 Y83.970 E14.18700 ; brim
G1 X134.490 Y82.233 E14.29344 ; brim
G1 X133.246 Y80.367 E14.39747 ; brim
G1 X132.241 Y78.364 E14.50144 ; brim
G1 X131.487 Y76.249 E14.60561 ; brim
G1 X131.254 Y75.190 E14.65592 ; brim
G1 X130.581 Y76.264 E14.71473 ; brim
G1 X129.116 Y77.735 E14.81105 ; brim
G1 X127.699 Y78.638 E14.88900 ; brim
G1 X126.273 Y79.184 E14.95985 ; brim
G1 X124.742 Y79.442 E15.03187 ; brim
G1 X121.482 Y79.451 E15.18312 ; brim
G1 X120.209 Y79.291 E15.24262 ; brim
G1 X118.747 Y78.815 E15.31397 ; brim
G1 X117.390 Y78.071 E15.38577 ; brim
G1 X115.684 Y76.510 E15.49303 ; brim
G1 X114.607 Y74.910 E15.58251 ; brim
G1 X114.125 Y73.722 E15.64197 ; brim
G1 X113.840 Y72.465 E15.70176 ; brim
G1 X113.773 Y60.662 E16.24936 ; brim
G1 X113.933 Y59.373 E16.30961 ; brim
G1 X114.415 Y57.886 E16.38216 ; brim
G1 X115.416 Y56.204 E16.47292 ; brim
G1 X116.779 Y54.790 E16.56409 ; brim
G1 X118.280 Y53.789 E16.64776 ; brim
G1 X119.592 Y53.260 E16.71339 ; brim
G1 X120.973 Y52.976 E16.77881 ; brim
G1 X125.028 Y52.969 E16.96691 ; brim
G1 X126.287 Y53.207 E17.02636 ; brim
G1 X127.498 Y53.645 E17.08613 ; brim
G1 X129.180 Y54.707 E17.17839 ; brim
G1 X130.898 Y56.536 E17.29480 ; brim
G1 X131.507 Y57.570 E17.35047 ; brim
G1 X131.548 Y58.855 F7800.000 ; move to first brim point
G1 F1200.000
G1 X131.910 Y57.870 E17.39918 ; brim
G1 X133.061 Y56.123 E17.49623 ; brim
G1 X134.542 Y54.756 E17.58971 ; brim
G1 X135.456 Y54.200 E17.63938 ; brim
G1 X136.423 Y53.781 E17.68828 ; brim
G1 X137.903 Y53.435 E17.75878 ; brim
G1 X155.279 Y53.434 E18.56489 ; brim
G1 X156.721 Y53.768 E18.63354 ; brim
G1 X157.980 Y54.335 E18.69761 ; brim
G1 X159.124 Y55.133 E18.76233 ; brim
G1 X160.109 Y56.103 E18.82648 ; brim
G1 X160.910 Y57.192 E18.88918 ; brim
G1 X161.505 Y58.420 E18.95246 ; brim
G1 X161.890 Y59.870 E19.02207 ; brim
G1 X161.956 Y74.291 E19.69112 ; brim
G1 X161.446 Y76.459 E19.79444 ; brim
G1 X160.393 Y78.372 E19.89573 ; brim
G1 X153.461 Y86.558 E20.39337 ; brim
G1 X151.990 Y87.747 E20.48112 ; brim
G1 X150.701 Y88.389 E20.54797 ; brim
G1 X149.404 Y88.781 E20.61082 ; brim
G1 X147.408 Y88.911 E20.70359 ; brim
G1 X144.630 Y88.452 E20.83421 ; brim
G1 X142.345 Y87.701 E20.94581 ; brim
G1 X140.242 Y86.685 E21.05417 ; brim
G1 X138.316 Y85.421 E21.16105 ; brim
G1 X136.295 Y83.645 E21.28585 ; brim
G1 X134.837 Y81.953 E21.38950 ; brim
G1 X133.625 Y80.132 E21.49097 ; brim
G1 X132.646 Y78.177 E21.59240 ; brim
G1 X131.913 Y76.114 E21.69398 ; brim
G1 X131.456 Y74.003 E21.79418 ; brim
G1 X130.246 Y75.968 E21.90125 ; brim
G1 X128.817 Y77.402 E21.99516 ; brim
G1 X127.480 Y78.249 E22.06860 ; brim
G1 X126.135 Y78.759 E22.13532 ; brim
G1 X124.723 Y78.996 E22.20177 ; brim
G1 X121.494 Y79.004 E22.35154 ; brim
G1 X120.327 Y78.860 E22.40611 ; brim
G1 X118.905 Y78.397 E22.47547 ; brim
G1 X117.629 Y77.693 E22.54311 ; brim
G1 X116.039 Y76.237 E22.64310 ; brim
G1 X115.011 Y74.719 E22.72816 ; brim
G1 X114.556 Y73.604 E22.78407 ; brim
G1 X114.286 Y72.438 E22.83958 ; brim
G1 X114.219 Y60.674 E23.38536 ; brim
G1 X114.364 Y59.490 E23.44067 ; brim
G1 X114.832 Y58.047 E23.51106 ; brim
G1 X115.755 Y56.496 E23.59480 ; brim
G1 X117.084 Y55.117 E23.68365 ; brim
G1 X118.469 Y54.194 E23.76086 ; brim
G1 X119.702 Y53.693 E23.82260 ; brim
G1 X121.041 Y53.418 E23.88602 ; brim
G1 X124.966 Y53.412 E24.06810 ; brim
G1 X126.186 Y53.642 E24.12571 ; brim
G1 X127.322 Y54.056 E24.18182 ; brim
G1 X128.916 Y55.068 E24.26942 ; brim
G1 X130.554 Y56.821 E24.38071 ; brim
G1 X131.076 Y57.720 E24.42893 ; brim
G1 X131.525 Y58.800 E24.48320 ; brim
G1 X131.364 Y60.185 F7800.000 ; move to first brim point
G1 F1200.000
G1 X131.732 Y60.172 E24.50026 ; brim
G1 X131.867 Y59.317 E24.54040 ; brim
G1 X132.298 Y58.091 E24.60069 ; brim
G1 X133.419 Y56.392 E24.69511 ; brim
G1 X134.826 Y55.101 E24.78374 ; brim
G1 X135.673 Y54.590 E24.82962 ; brim
G1 X136.582 Y54.198 E24.87554 ; brim
G1 X137.929 Y53.881 E24.93975 ; brim
G1 X155.203 Y53.874 E25.74112 ; brim
G1 X156.598 Y54.198 E25.80754 ; brim
G1 X157.776 Y54.733 E25.86759 ; brim
G1 X158.824 Y55.465 E25.92691 ; brim
G1 X159.760 Y56.383 E25.98770 ; brim
G1 X160.538 Y57.440 E26.04859 ; brim
G1 X161.094 Y58.594 E26.10804 ; brim
G1 X161.444 Y59.901 E26.17080 ; brim
G1 X161.515 Y74.216 E26.83493 ; brim
G1 X161.039 Y76.272 E26.93282 ; brim
G1 X160.037 Y78.101 E27.02956 ; brim
G1 X153.164 Y86.224 E27.52322 ; brim
G1 X151.729 Y87.385 E27.60885 ; brim
G1 X150.552 Y87.968 E27.66980 ; brim
G1 X149.348 Y88.338 E27.72821 ; brim
G1 X147.405 Y88.464 E27.81855 ; brim
G1 X144.754 Y88.022 E27.94326 ; brim
G1 X142.498 Y87.282 E28.05338 ; brim
G1 X140.450 Y86.289 E28.15898 ; brim
G1 X138.599 Y85.075 E28.26168 ; brim
G1 X136.602 Y83.320 E28.38503 ; brim
G1 X135.201 Y81.693 E28.48462 ; brim
G1 X134.018 Y79.919 E28.58354 ; brim
G1 X133.051 Y77.989 E28.68368 ; brim
G1 X132.338 Y75.978 E28.78268 ; brim
G1 X131.848 Y73.701 E28.89075 ; brim
G1 X131.737 Y72.266 E28.95752 ; brim
G1 X131.335 Y72.255 E28.97617 ; brim
G1 X131.265 Y72.783 E29.00088 ; brim
G1 X130.783 Y74.245 E29.07229 ; brim
G1 X129.910 Y75.673 E29.14992 ; brim
G1 X128.556 Y77.039 E29.23918 ; brim
G1 X127.300 Y77.839 E29.30827 ; brim
G1 X125.998 Y78.333 E29.37287 ; brim
G1 X124.668 Y78.552 E29.43540 ; brim
G1 X121.507 Y78.558 E29.58205 ; brim
G1 X120.443 Y78.428 E29.63177 ; brim
G1 X119.102 Y77.995 E29.69716 ; brim
G1 X117.867 Y77.315 E29.76256 ; brim
G1 X116.393 Y75.965 E29.85530 ; brim
G1 X115.415 Y74.528 E29.93594 ; brim
G1 X114.986 Y73.483 E29.98834 ; brim
G1 X114.732 Y72.409 E30.03953 ; brim
G1 X114.665 Y60.685 E30.58346 ; brim
G1 X114.796 Y59.607 E30.63383 ; brim
G1 X115.249 Y58.208 E30.70205 ; brim
G1 X116.094 Y56.787 E30.77877 ; brim
G1 X117.388 Y55.444 E30.86530 ; brim
G1 X118.658 Y54.599 E30.93605 ; brim
G1 X119.851 Y54.114 E30.99577 ; brim
G1 X121.107 Y53.860 E31.05526 ; brim
G1 X124.905 Y53.854 E31.23142 ; brim
G1 X126.051 Y54.068 E31.28551 ; brim
G1 X127.146 Y54.467 E31.33960 ; brim
G1 X128.652 Y55.429 E31.42248 ; brim
G1 X130.209 Y57.105 E31.52865 ; brim
G1 X130.681 Y57.929 E31.57266 ; brim
G1 X131.046 Y58.813 E31.61705 ; brim
G1 X131.351 Y60.126 E31.67960 ; brim
G1 X130.905 Y60.180 F7800.000 ; move to first brim point
G1 F1200.000
G1 X130.950 Y71.693 E32.21372 ; brim
G1 X130.834 Y72.666 E32.25916 ; brim
G1 X130.367 Y74.080 E32.32828 ; brim
G1 X129.574 Y75.378 E32.39882 ; brim
G1 X128.295 Y76.677 E32.48339 ; brim
G1 X127.079 Y77.451 E32.55024 ; brim
G1 X125.903 Y77.897 E32.60863 ; brim
G1 X124.649 Y78.106 E32.66760 ; brim
G1 X121.520 Y78.112 E32.81278 ; brim
G1 X120.560 Y77.997 E32.85763 ; brim
G1 X119.260 Y77.577 E32.92099 ; brim
G1 X118.108 Y76.938 E32.98213 ; brim
G1 X116.715 Y75.654 E33.07001 ; brim
G1 X115.818 Y74.336 E33.14395 ; brim
G1 X115.415 Y73.361 E33.19291 ; brim
G1 X115.179 Y72.380 E33.23971 ; brim
G1 X115.112 Y60.696 E33.78179 ; brim
G1 X115.227 Y59.724 E33.82721 ; brim
G1 X115.666 Y58.369 E33.89326 ; brim
G1 X116.433 Y57.078 E33.96295 ; brim
G1 X117.693 Y55.771 E34.04715 ; brim
G1 X118.848 Y55.004 E34.11149 ; brim
G1 X119.960 Y54.547 E34.16726 ; brim
G1 X121.174 Y54.302 E34.22472 ; brim
G1 X124.844 Y54.297 E34.39499 ; brim
G1 X125.916 Y54.493 E34.44552 ; brim
G1 X126.970 Y54.878 E34.49761 ; brim
G1 X128.345 Y55.754 E34.57323 ; brim
G1 X129.835 Y57.350 E34.67451 ; brim
G1 X130.286 Y58.138 E34.71663 ; brim
G1 X130.626 Y58.965 E34.75813 ; brim
G1 X130.891 Y60.122 E34.81317 ; brim
G1 X130.458 Y60.207 F7800.000 ; move to first brim point
G1 F1200.000
G1 X130.503 Y71.681 E35.34547 ; brim
G1 X130.394 Y72.590 E35.38794 ; brim
G1 X129.952 Y73.914 E35.45272 ; brim
G1 X129.208 Y75.121 E35.51851 ; brim
G1 X127.996 Y76.344 E35.59836 ; brim
G1 X126.861 Y77.061 E35.66065 ; brim
G1 X125.767 Y77.471 E35.71484 ; brim
G1 X124.595 Y77.663 E35.76994 ; brim
G1 X121.533 Y77.665 E35.91200 ; brim
G1 X120.635 Y77.556 E35.95395 ; brim
G1 X119.419 Y77.160 E36.01333 ; brim
G1 X118.389 Y76.591 E36.06790 ; brim
G1 X117.069 Y75.381 E36.15095 ; brim
G1 X116.201 Y74.105 E36.22259 ; brim
G1 X115.845 Y73.237 E36.26609 ; brim
G1 X115.625 Y72.351 E36.30847 ; brim
G1 X115.558 Y60.708 E36.84863 ; brim
G1 X115.667 Y59.799 E36.89107 ; brim
G1 X116.082 Y58.532 E36.95290 ; brim
G1 X116.802 Y57.330 E37.01793 ; brim
G1 X117.996 Y56.100 E37.09744 ; brim
G1 X119.075 Y55.389 E37.15739 ; brim
G1 X120.108 Y54.969 E37.20913 ; brim
G1 X121.240 Y54.744 E37.26266 ; brim
G1 X124.784 Y54.739 E37.42709 ; brim
G1 X125.816 Y54.929 E37.47578 ; brim
G1 X126.793 Y55.288 E37.52406 ; brim
G1 X128.080 Y56.115 E37.59503 ; brim
G1 X129.461 Y57.595 E37.68893 ; brim
G1 X129.879 Y58.321 E37.72782 ; brim
G1 X130.206 Y59.118 E37.76779 ; brim
G1 X130.445 Y60.149 E37.81686 ; brim
G1 X130.012 Y60.234 F7800.000 ; move to first brim point
G1 F1200.000
G1 X130.057 Y71.668 E38.34731 ; brim
G1 X129.954 Y72.512 E38.38676 ; brim
G1 X129.538 Y73.746 E38.44718 ; brim
G1 X128.843 Y74.864 E38.50821 ; brim
G1 X127.699 Y76.010 E38.58335 ; brim
G1 X126.645 Y76.670 E38.64106 ; brim
G1 X125.634 Y77.045 E38.69108 ; brim
G1 X124.543 Y77.219 E38.74233 ; brim
G1 X121.547 Y77.219 E38.88130 ; brim
G1 X120.712 Y77.116 E38.92032 ; brim
G1 X119.578 Y76.742 E38.97573 ; brim
G1 X118.670 Y76.243 E39.02383 ; brim
G1 X117.423 Y75.108 E39.10202 ; brim
G1 X116.583 Y73.873 E39.17131 ; brim
G1 X116.273 Y73.111 E39.20947 ; brim
G1 X116.071 Y72.320 E39.24736 ; brim
G1 X116.005 Y60.719 E39.78555 ; brim
G1 X116.108 Y59.876 E39.82498 ; brim
G1 X116.497 Y58.697 E39.88257 ; brim
G1 X117.171 Y57.584 E39.94294 ; brim
G1 X118.297 Y56.430 E40.01776 ; brim
G1 X119.300 Y55.775 E40.07330 ; brim
G1 X120.254 Y55.391 E40.12101 ; brim
G1 X121.304 Y55.186 E40.17065 ; brim
G1 X124.725 Y55.182 E40.32935 ; brim
G1 X125.681 Y55.355 E40.37441 ; brim
G1 X126.615 Y55.699 E40.42061 ; brim
G1 X127.814 Y56.474 E40.48686 ; brim
G1 X129.087 Y57.839 E40.57344 ; brim
G1 X129.484 Y58.531 E40.61044 ; brim
G1 X129.787 Y59.271 E40.64752 ; brim
G1 X129.998 Y60.176 E40.69066 ; brim
G1 X129.566 Y60.263 F7800.000 ; move to first brim point
G1 F1200.000
G1 X129.610 Y71.656 E41.21921 ; brim
G1 X129.514 Y72.434 E41.25559 ; brim
G1 X129.124 Y73.577 E41.31163 ; brim
G1 X128.479 Y74.604 E41.36788 ; brim
G1 X127.403 Y75.675 E41.43833 ; brim
G1 X126.430 Y76.278 E41.49144 ; brim
G1 X125.501 Y76.618 E41.53732 ; brim
G1 X124.525 Y76.773 E41.58315 ; brim
G1 X121.561 Y76.773 E41.72066 ; brim
G1 X120.790 Y76.676 E41.75671 ; brim
G1 X119.738 Y76.325 E41.80816 ; brim
G1 X118.949 Y75.893 E41.84989 ; brim
G1 X117.777 Y74.835 E41.92316 ; brim
G1 X116.966 Y73.642 E41.99007 ; brim
G1 X116.701 Y72.984 E42.02301 ; brim
